src/static/logos/supergiant.svg

<?xml version="1.0" encoding="UTF-8"?>
<svg width="256px" height="256px" viewBox="0 0 256 256" version="1.1" xmlns="http://www.w3.org/2000/svg" xmlns:xlink="http://www.w3.org/1999/xlink" preserveAspectRatio="xMidYMid">
    <defs>
        <radialGradient cx="23.5167464%" cy="6.93720746%" fx="23.5167464%" fy="6.93720746%" r="91.1188498%" gradientTransform="translate(0.235167,0.069372),scale(1.000000,0.999968),rotate(54.384621),scale(1.000000,1.030542),translate(-0.235167,-0.069372)" id="radialGradient-1">
            <stop stop-color="#DE0081" offset="0%"></stop>
            <stop stop-color="#6600C4" offset="100%"></stop>
        </radialGradient>
    </defs>
    <g>
        <path d="M81.8150008,8.66028504 C15.8983008,34.1662787 -16.8522974,108.274338 8.66556785,174.191038 C34.15969,240.101802 108.267749,272.855368 174.172578,247.349375 C216.494601,230.978527 245.119841,194.589304 253.474434,153.199196 C237.804007,163.497753 219.628687,172.876266 199.675604,180.622442 C123.905529,209.945135 51.0143023,204.098404 36.9168541,167.593432 C30.4468673,150.884246 37.3917155,130.643279 54.1009015,110.817815 C53.6557189,110.253917 53.3292517,109.66034 53.0621422,108.977727 C51.904188,106.0122 52.7995591,102.638257 55.2755624,100.637104 C57.7515658,98.6359506 61.238261,98.4682228 63.8949182,100.222469 C84.1388538,80.5186885 113.550583,61.9100568 148.452897,48.3765065 C170.43898,39.8883588 192.140147,34.338416 212.262399,31.6376417 C188.902321,11.2701532 158.966863,0.0338158064 127.974498,0 C112.187843,0.00273340653 96.5389819,2.93727231 81.8239044,8.65434927 L81.8150008,8.66028504 Z M149.764701,51.6827291 C115.016717,65.1272429 85.8246118,83.54593 66.2573537,102.736267 C67.3201848,104.586202 67.5213955,106.808255 66.8081572,108.819016 C66.0949188,110.829778 64.5384835,112.428375 62.5474989,113.19509 C60.6839995,113.924144 58.6017856,113.848935 56.79574,112.987338 C42.2234304,130.55721 36.204562,148.150825 41.8079267,162.631131 C54.6677673,195.85659 123.846172,200.047242 196.330799,172.00074 C218.640381,163.364198 238.664694,152.679816 255.332329,141.057583 C256.08914,133.72691 256.204887,126.277521 255.6677,118.816262 C240.472135,133.982148 217.975575,148.346706 191.187456,158.710556 C165.812049,168.534252 140.881825,173.098857 120.106638,172.724904 C118.949163,175.939122 116.48582,178.660671 113.072753,179.984347 C106.869876,182.37943 99.8656703,179.295798 97.4913632,173.089953 C97.0758595,172.021515 96.8087499,170.893719 96.7197134,169.765923 C82.8003382,166.115426 72.8282485,159.11122 68.880963,148.961058 C58.2559389,121.537811 95.7996694,81.4713792 152.694003,59.4200023 C178.870738,49.2995184 204.572612,44.7586561 225.733624,45.4709483 C222.538356,41.6977235 219.1296,38.1106031 215.524103,34.7272088 C194.986347,37.2795889 172.489788,42.9185682 149.666761,51.7331832 L149.764701,51.6827291 Z M153.970193,62.5362803 C100.281174,83.3114672 64.3697796,119.757081 73.7186137,143.945334 C77.1613589,152.819307 86.1837258,158.784753 98.9159474,161.811995 C100.221816,159.942228 102.091583,158.458286 104.376854,157.567921 C110.431337,155.223293 117.287148,158.161498 119.80985,164.097265 C139.457241,164.215981 163.378384,159.615761 187.833747,150.17789 C216.414469,139.107683 239.979466,123.585651 254.344024,107.843995 C253.245907,101.017862 251.583892,94.2065687 249.298621,87.454633 C242.650562,103.88187 218.729418,122.891166 186.973061,135.178205 C145.036862,151.403626 105.356255,149.77129 98.2926918,131.527708 C97.0165018,128.292715 96.8977864,124.754997 97.7287939,121.021399 C96.2978167,120.032221 95.2008044,118.631978 94.582837,117.005852 C92.8317856,112.524348 95.0280196,107.467074 99.4798454,105.748669 C101.515512,104.950652 103.781115,104.971925 105.801438,105.808027 C116.574856,92.3931917 136.608072,78.7023436 161.389902,69.0953036 C191.60296,57.4018413 220.688221,54.9859838 237.189655,61.3906772 C234.544009,57.0400667 231.640177,52.8518098 228.493756,48.8484001 C226.149128,48.7000059 223.745142,48.619873 221.281798,48.619873 C201.723444,48.619873 178.069409,53.220093 153.881156,62.568927 L153.970193,62.5362803 Z M162.784808,72.5380489 C138.092014,82.0946348 118.325908,95.4204332 108.799001,107.707472 C109.630008,108.53848 110.282943,109.54756 110.757804,110.705035 C112.479177,115.216218 110.282943,120.261621 105.860796,121.982994 C104.792357,122.398497 103.69424,122.57657 102.625802,122.57657 C102.655481,124.001155 102.892912,125.336702 103.397452,126.612892 C109.155147,141.541348 145.125899,141.541348 183.67871,126.612892 C222.2612,111.684437 248.82376,87.4665046 243.066065,72.5677277 C240.157539,65.1183393 229.710588,61.3788056 215.197636,61.3788056 C200.655005,61.3788056 182.016695,65.1183393 162.72545,72.5677277 L162.784808,72.5380489 Z M151.954999,107.348358 C147.779187,96.5452612 153.15996,84.338355 163.974929,80.1536388 C174.789898,75.9689226 186.9879,81.3645354 191.169649,92.1735683 C195.354365,102.988537 189.958752,115.18654 179.149719,119.371256 C176.6656,120.350657 174.104317,120.79584 171.590519,120.79584 C163.161729,120.79584 155.178121,115.69108 151.952032,107.381005 L151.954999,107.348358 Z" fill="url(#radialGradient-1)"></path>
    </g>
</svg>

<svg width="256" height="256" xmlns="http://www.w3.org/2000/svg" preserveAspectRatio="xMidYMid"><defs><radialGradient cx="23.517%" cy="6.937%" fx="23.517%" fy="6.937%" r="91.119%" gradientTransform="matrix(.58234 .81292 -.83777 .6001 .156 -.163)" id="a"><stop stop-color="#DE0081" offset="0%"/><stop stop-color="#6600C4" offset="100%"/></radialGradient></defs><path d="M81.815 8.66c-65.917 25.506-98.667 99.614-73.15 165.531 25.495 65.91 99.603 98.664 165.508 73.158 42.322-16.37 70.947-52.76 79.301-94.15-15.67 10.299-33.845 19.677-53.798 27.423-75.77 29.323-148.662 23.476-162.76-13.029-6.47-16.709.476-36.95 17.185-56.775a7.013 7.013 0 01-1.039-1.84 7.307 7.307 0 0110.833-8.756C84.139 80.52 113.55 61.91 148.453 48.377c21.986-8.489 43.687-14.039 63.81-16.74A128.47 128.47 0 00127.973 0a127.497 127.497 0 00-46.15 8.654l-.009.006zm67.95 43.023c-34.748 13.444-63.94 31.863-83.508 51.053a7.307 7.307 0 01-3.71 10.46 7.236 7.236 0 01-5.751-.209c-14.573 17.57-20.591 35.164-14.988 49.644 12.86 33.226 82.038 37.416 154.523 9.37 22.31-8.637 42.334-19.321 59.001-30.943.757-7.331.873-14.78.336-22.242-15.196 15.166-37.692 29.53-64.48 39.895-25.376 9.823-50.306 14.388-71.081 14.014-1.158 3.214-3.621 5.936-7.034 7.26-6.203 2.394-13.207-.69-15.582-6.895a11.773 11.773 0 01-.771-3.324c-13.92-3.65-23.892-10.655-27.839-20.805-10.625-27.423 26.919-67.49 83.813-89.541 26.177-10.12 51.879-14.661 73.04-13.95a129.492 129.492 0 00-10.21-10.743c-20.538 2.553-43.034 8.192-65.857 17.006l.098-.05zm4.205 10.853c-53.689 20.775-89.6 57.221-80.251 81.41 3.442 8.873 12.465 14.839 25.197 17.866 1.306-1.87 3.176-3.354 5.46-4.244 6.055-2.345 12.911.593 15.434 6.53 19.647.118 43.568-4.482 68.024-13.92 28.58-11.07 52.145-26.592 66.51-42.334a125.882 125.882 0 00-5.045-20.39c-6.648 16.428-30.57 35.437-62.326 47.724-41.936 16.226-81.617 14.593-88.68-3.65-1.276-3.235-1.395-6.773-.564-10.507a8.592 8.592 0 01-3.146-4.015c-1.751-4.482.445-9.539 4.897-11.257a8.458 8.458 0 016.321.059c10.774-13.415 30.807-27.106 55.589-36.713 30.213-11.693 59.298-14.109 75.8-7.704a127.53 127.53 0 00-8.696-12.543 114.13 114.13 0 00-7.212-.228c-19.559 0-43.213 4.6-67.4 13.949l.088-.033zm8.815 10.002c-24.693 9.557-44.46 22.882-53.986 35.17.831.83 1.484 1.84 1.959 2.997 1.721 4.511-.475 9.557-4.897 11.278a8.897 8.897 0 01-3.235.594c.03 1.424.267 2.76.771 4.036 5.758 14.928 41.729 14.928 80.282 0 38.582-14.929 65.145-39.146 59.387-54.045-2.908-7.45-13.355-11.19-27.868-11.19-14.543 0-33.181 3.74-52.473 11.19l.06-.03zm-10.83 34.81c-4.176-10.803 1.205-23.01 12.02-27.194 10.815-4.185 23.013 1.21 27.195 12.02 4.184 10.815-1.211 23.013-12.02 27.197a20.554 20.554 0 01-7.56 1.425c-8.428 0-16.412-5.105-19.638-13.415l.003-.033z" fill="url(#a)"/></svg>
